packages/website/static/img/logos/markdoc.svg

<svg fill="none" height="48" viewBox="0 0 48 48" width="48" xmlns="http://www.w3.org/2000/svg"><path d="m0 0h48v48h-48z" fill="#fff"/><path d="m20.9021 30.3306 1.7657-8.7249c.3116-1.4196.7617-3.9816.9348-5.5397h.2424c-.1039 2.0082-.1731 5.0203-.1731 6.9592v13.2951h3.8085v-24.5821h-5.3665l-2.3197 11.1139c-.1732 1.0387-.3809 2.3889-.4501 3.116h-.2078c-.0692-.7271-.277-2.0773-.4501-3.116l-2.3197-11.1139h-5.3665v24.5821h3.8085v-13.2951c0-1.9389-.0693-4.951-.1731-6.9592h.2423c.2078 1.5581.6232 4.1201.9348 5.5397l1.7658 8.7249z" fill="#18181b"/><rect fill="#ffd848" height="47.4651" rx="1.13817" transform="matrix(-1 0 0 1 37 .25)" width="3.93023"/></svg>

<svg width="48" height="48" viewBox="0 0 48 48" fill="none" xmlns="http://www.w3.org/2000/svg">
<rect width="48" height="48" fill="white"/>
<path d="M20.9021 30.3306L22.6678 21.6057C22.9794 20.1861 23.4295 17.6241 23.6026 16.066H23.845C23.7411 18.0742 23.6719 21.0863 23.6719 23.0252V36.3203H27.4804V11.7382H22.1139L19.7942 22.8521C19.621 23.8908 19.4133 25.241 19.3441 25.9681H19.1363C19.0671 25.241 18.8593 23.8908 18.6862 22.8521L16.3665 11.7382H11V36.3203H14.8085V23.0252C14.8085 21.0863 14.7392 18.0742 14.6354 16.066H14.8777C15.0855 17.6241 15.5009 20.1861 15.8125 21.6057L17.5783 30.3306H20.9021Z" fill="#18181B"/>
<rect width="3.93023" height="47.4651" rx="1.13817" transform="matrix(-1 0 0 1 37 0.25)" fill="#FFD848"/>
</svg>
